X:1
T:Springtanz 6 (Courante)
L:1/8
K:F
C|:F2CF2G|A3/2B/2 cAFc|B2AG2F|
"^5"E3/2F/2 GECc|B2AG2F|E3/2F/2 GECc|G2AB2A|
"^9"G2FE2C|DEF EFG|[1F3F2C:|[2F3F2F|
"^13"|:EC GECG|EC GECG|ABc =Bcd|c3c2c|
"^17"AF cAFc|B3 B2A|G2FE2C|DEF EFG|[1F3F2F:|[2F3F3||
